!!!OTL: SCHAUTS AUSSI,WIES REGNT
!!!ARE: Europa, Mitteleuropa, Deutschland, Bayern
!!!SCT: E0605
!!!YEM: Copyright 1995, estate of Helmut Schaffrath.
**kern
*ICvox
*Ivox
*M3/4
*k[f#]
*G:
{8g
8a
=1
4.b
8b
4b
=2
4cc
4r}
{8a
8b
=3
4.cc
8cc
4cc
=4
4dd
4r}
{8g
8a
=5
4.b
8b
4b
=6
4cc
4a}
{8a
8b
=7
4.cc
8cc
4cc
=8
2b}
{4g
=9
4.dd
8cc
4b
=10
4b
4a}
{4a
=11
4ee
4dd
4cc
=12
4cc
4b}
{4b
=13
4.dd
8cc
4b
=14
4b
4a}
{4a
=15
4.ee
8dd
4cc
=16
2b}
==
!!!AGN: Liebes - Lied, Trost
!!!ONB: ESAC (Essen Associative Code) Database: ERK1
!!!AMT: simple triple
!!!AIN: vox
!!!EED: Helmut Schaffrath
!!!EEV: 1.0
*-
